svg/color/dappx.svg

<?xml version="1.0" encoding="UTF-8" ?>
<!DOCTYPE svg PUBLIC "-//W3C//DTD SVG 1.1//EN" "http://www.w3.org/Graphics/SVG/1.1/DTD/svg11.dtd">
<svg width="217pt" height="250pt" viewBox="0 0 217 250" version="1.1" xmlns="http://www.w3.org/2000/svg">
<g id="#ffffffff">
<path fill="#ffffff" opacity="1.00" d=" M 0.00 0.00 L 107.40 0.00 L 107.35 0.77 C 89.52 10.98 71.75 21.31 53.96 31.60 C 53.49 31.88 52.53 32.42 52.06 32.70 C 35.12 42.51 18.14 52.26 1.21 62.09 C 0.23 68.69 0.87 75.37 0.71 82.00 C 0.82 96.16 0.47 110.32 0.89 124.47 C 6.67 122.03 11.79 118.36 17.25 115.33 C 29.96 108.16 42.51 100.70 55.17 93.44 C 72.69 83.18 90.44 73.30 107.82 62.82 L 108.38 62.51 C 121.74 55.29 134.63 47.24 147.91 39.86 C 152.67 37.09 157.66 34.63 161.98 31.16 C 144.59 20.47 126.43 11.03 109.26 0.00 L 217.00 0.00 L 217.00 250.00 L 0.00 250.00 L 0.00 0.00 M 162.73 31.81 C 162.26 39.20 162.63 46.60 162.52 54.00 C 162.68 66.83 162.18 79.67 162.77 92.48 C 162.71 92.84 162.59 93.55 162.53 93.91 C 162.32 99.27 162.49 104.63 162.44 110.00 C 162.35 114.81 162.97 119.71 161.59 124.40 C 143.82 114.19 126.13 103.83 108.33 93.66 C 99.46 88.68 90.97 82.91 81.67 78.76 C 81.46 82.17 81.48 85.59 81.50 89.00 C 81.62 116.44 81.30 143.89 81.66 171.32 C 83.41 170.58 85.15 169.78 86.81 168.84 C 111.82 154.47 136.67 139.81 161.78 125.62 C 163.30 135.59 161.95 145.74 162.50 155.78 C 162.44 176.54 162.53 197.29 162.45 218.05 C 166.74 216.98 170.17 214.03 174.01 212.02 C 185.08 205.79 195.95 199.23 207.01 193.00 C 209.93 191.32 213.03 189.86 215.54 187.55 L 216.00 187.88 C 216.83 174.94 216.18 161.96 216.37 149.00 C 216.14 141.22 216.97 133.40 215.80 125.67 C 215.78 125.35 215.76 124.71 215.74 124.39 C 216.82 118.64 216.25 112.80 216.33 107.00 C 216.39 94.67 216.28 82.34 216.39 70.01 C 216.38 67.32 216.41 64.58 215.56 62.00 C 206.21 56.44 196.69 51.19 187.35 45.62 C 179.07 41.15 171.22 35.86 162.73 31.81 M 1.05 125.59 C 0.11 136.03 0.86 146.53 0.63 156.99 C 0.87 167.32 0.11 177.67 1.07 187.97 L 1.59 187.63 C 4.24 190.08 7.56 191.57 10.65 193.36 C 25.13 201.60 39.41 210.23 54.00 218.26 C 70.42 228.15 87.20 237.46 103.69 247.25 C 105.15 248.11 106.73 248.69 108.32 249.23 C 108.62 228.60 108.23 207.97 108.53 187.34 L 107.68 187.76 C 106.17 185.69 103.81 184.60 101.66 183.35 C 85.98 174.58 70.64 165.21 54.89 156.58 C 41.10 148.13 26.87 140.35 12.93 132.12 C 9.03 129.85 5.26 127.29 1.05 125.59 M 108.76 188.28 C 108.49 208.59 108.51 228.91 108.74 249.23 C 113.36 247.76 117.25 244.80 121.43 242.46 C 134.94 234.61 148.58 226.99 161.93 218.89 C 160.16 217.30 158.16 216.01 156.08 214.87 C 142.94 207.38 129.92 199.71 116.81 192.17 C 114.23 190.67 111.69 189.00 108.76 188.28 Z" />
</g>
<g id="#e32f40ff">
<path fill="#e32f40" opacity="1.00" d=" M 107.40 0.00 L 109.26 0.00 C 126.43 11.03 144.59 20.47 161.98 31.16 C 157.66 34.63 152.67 37.09 147.91 39.86 C 134.63 47.24 121.74 55.29 108.38 62.51 C 108.08 60.34 107.81 58.16 107.70 55.97 C 107.41 37.57 108.13 19.15 107.35 0.77 L 107.40 0.00 Z" />
</g>
<g id="#c6262cff">
<path fill="#c6262c" opacity="1.00" d=" M 53.96 31.60 C 71.75 21.31 89.52 10.98 107.35 0.77 C 108.13 19.15 107.41 37.57 107.70 55.97 C 107.81 58.16 108.08 60.34 108.38 62.51 L 107.82 62.82 C 100.39 57.39 91.84 53.80 84.13 48.81 C 80.24 46.28 76.21 43.96 72.10 41.80 C 65.95 38.60 60.30 34.48 53.96 31.60 Z" />
</g>
<g id="#ed1b2fff">
<path fill="#ed1b2f" opacity="1.00" d=" M 52.06 32.70 C 52.53 32.42 53.49 31.88 53.96 31.60 C 60.30 34.48 65.95 38.60 72.10 41.80 C 76.21 43.96 80.24 46.28 84.13 48.81 C 91.84 53.80 100.39 57.39 107.82 62.82 C 90.44 73.30 72.69 83.18 55.17 93.44 L 54.29 93.13 C 54.39 78.09 54.31 63.04 54.33 48.00 C 54.34 43.08 54.71 38.12 53.86 33.25 C 53.41 33.11 52.51 32.83 52.06 32.70 Z" />
</g>
<g id="#f57b20ff">
<path fill="#f57b20" opacity="1.00" d=" M 162.73 31.81 C 171.22 35.86 179.07 41.15 187.35 45.62 C 196.69 51.19 206.21 56.44 215.56 62.00 C 210.00 66.22 203.79 69.42 197.69 72.74 C 186.06 79.33 174.84 86.70 162.77 92.48 C 162.18 79.67 162.68 66.83 162.52 54.00 C 162.63 46.60 162.26 39.20 162.73 31.81 Z" />
</g>
<g id="#a4282eff">
<path fill="#a4282e" opacity="1.00" d=" M 1.21 62.09 C 18.14 52.26 35.12 42.51 52.06 32.70 C 52.51 32.83 53.41 33.11 53.86 33.25 C 54.71 38.12 54.34 43.08 54.33 48.00 C 54.31 63.04 54.39 78.09 54.29 93.13 C 48.31 90.60 43.00 86.79 37.29 83.75 C 27.82 78.64 18.84 72.68 9.29 67.72 C 6.35 66.23 3.67 64.28 1.21 62.09 Z" />
</g>
<g id="#e31567ff">
<path fill="#e31567" opacity="1.00" d=" M 0.71 82.00 C 0.87 75.37 0.23 68.69 1.21 62.09 C 3.67 64.28 6.35 66.23 9.29 67.72 C 18.84 72.68 27.82 78.64 37.29 83.75 C 43.00 86.79 48.31 90.60 54.29 93.13 L 55.17 93.44 C 42.51 100.70 29.96 108.16 17.25 115.33 C 11.79 118.36 6.67 122.03 0.89 124.47 C 0.47 110.32 0.82 96.16 0.71 82.00 Z" />
</g>
<g id="#faa32dff">
<path fill="#faa32d" opacity="1.00" d=" M 215.56 62.00 C 216.41 64.58 216.38 67.32 216.39 70.01 C 216.28 82.34 216.39 94.67 216.33 107.00 C 216.25 112.80 216.82 118.64 215.74 124.39 C 209.02 121.35 203.00 117.06 196.55 113.51 C 185.10 107.17 173.94 100.33 162.53 93.91 C 162.59 93.55 162.71 92.84 162.77 92.48 C 174.84 86.70 186.06 79.33 197.69 72.74 C 203.79 69.42 210.00 66.22 215.56 62.00 Z" />
</g>
<g id="#ed1f24ff">
<path fill="#ed1f24" opacity="1.00" d=" M 81.67 78.76 C 90.97 82.91 99.46 88.68 108.33 93.66 C 126.13 103.83 143.82 114.19 161.59 124.40 C 161.64 124.71 161.73 125.32 161.78 125.62 C 136.67 139.81 111.82 154.47 86.81 168.84 C 85.15 169.78 83.41 170.58 81.66 171.32 C 81.30 143.89 81.62 116.44 81.50 89.00 C 81.48 85.59 81.46 82.17 81.67 78.76 Z" />
</g>
<g id="#a6ce39ff">
<path fill="#a6ce39" opacity="1.00" d=" M 162.44 110.00 C 162.49 104.63 162.32 99.27 162.53 93.91 C 173.94 100.33 185.10 107.17 196.55 113.51 C 203.00 117.06 209.02 121.35 215.74 124.39 C 215.76 124.71 215.78 125.35 215.80 125.67 C 205.55 130.98 195.80 137.17 185.71 142.77 C 178.25 147.48 170.30 151.37 162.98 156.29 L 162.50 155.78 C 161.95 145.74 163.30 135.59 161.78 125.62 C 161.73 125.32 161.64 124.71 161.59 124.40 C 162.97 119.71 162.35 114.81 162.44 110.00 Z" />
</g>
<g id="#7e2a90ff">
<path fill="#7e2a90" opacity="1.00" d=" M 1.05 125.59 C 5.26 127.29 9.03 129.85 12.93 132.12 C 26.87 140.35 41.10 148.13 54.89 156.58 C 46.19 161.74 37.31 166.60 28.55 171.66 C 19.82 177.42 10.21 181.68 1.59 187.63 L 1.07 187.97 C 0.11 177.67 0.87 167.32 0.63 156.99 C 0.86 146.53 0.11 136.03 1.05 125.59 Z" />
</g>
<g id="#3eb049ff">
<path fill="#3eb049" opacity="1.00" d=" M 185.71 142.77 C 195.80 137.17 205.55 130.98 215.80 125.67 C 216.97 133.40 216.14 141.22 216.37 149.00 C 216.18 161.96 216.83 174.94 216.00 187.88 L 215.54 187.55 C 209.25 182.89 202.04 179.72 195.44 175.54 C 184.76 168.89 173.26 163.56 162.98 156.29 C 170.30 151.37 178.25 147.48 185.71 142.77 Z" />
</g>
<g id="#1d6a3dff">
<path fill="#1d6a3d" opacity="1.00" d=" M 162.50 155.78 L 162.98 156.29 C 173.26 163.56 184.76 168.89 195.44 175.54 C 202.04 179.72 209.25 182.89 215.54 187.55 C 213.03 189.86 209.93 191.32 207.01 193.00 C 195.95 199.23 185.08 205.79 174.01 212.02 C 170.17 214.03 166.74 216.98 162.45 218.05 C 162.53 197.29 162.44 176.54 162.50 155.78 Z" />
</g>
<g id="#572e61ff">
<path fill="#572e61" opacity="1.00" d=" M 28.55 171.66 C 37.31 166.60 46.19 161.74 54.89 156.58 C 54.44 177.03 54.65 197.49 54.79 217.94 L 54.00 218.26 C 39.41 210.23 25.13 201.60 10.65 193.36 C 7.56 191.57 4.24 190.08 1.59 187.63 C 10.21 181.68 19.82 177.42 28.55 171.66 Z" />
</g>
<g id="#106292ff">
<path fill="#106292" opacity="1.00" d=" M 54.89 156.58 C 70.64 165.21 85.98 174.58 101.66 183.35 C 103.81 184.60 106.17 185.69 107.68 187.76 C 94.93 194.47 82.88 202.39 70.20 209.20 C 65.03 212.06 60.16 215.45 54.79 217.94 C 54.65 197.49 54.44 177.03 54.89 156.58 Z" />
</g>
<g id="#0f82b7ff">
<path fill="#0f82b7" opacity="1.00" d=" M 70.20 209.20 C 82.88 202.39 94.93 194.47 107.68 187.76 L 108.53 187.34 C 108.23 207.97 108.62 228.60 108.32 249.23 C 106.73 248.69 105.15 248.11 103.69 247.25 C 87.20 237.46 70.42 228.15 54.00 218.26 L 54.79 217.94 C 60.16 215.45 65.03 212.06 70.20 209.20 Z" />
</g>
<g id="#0eabe3ff">
<path fill="#0eabe3" opacity="1.00" d=" M 108.76 188.28 C 111.69 189.00 114.23 190.67 116.81 192.17 C 129.92 199.71 142.94 207.38 156.08 214.87 C 158.16 216.01 160.16 217.30 161.93 218.89 C 148.58 226.99 134.94 234.61 121.43 242.46 C 117.25 244.80 113.36 247.76 108.74 249.23 C 108.51 228.91 108.49 208.59 108.76 188.28 Z" />
</g>
</svg>

<?xml version="1.0" encoding="utf-8"?>
<!-- Generator: Adobe Illustrator 26.0.3, SVG Export Plug-In . SVG Version: 6.00 Build 0)  -->
<svg version="1.1" id="Layer_1" xmlns="http://www.w3.org/2000/svg" xmlns:xlink="http://www.w3.org/1999/xlink" x="0px" y="0px"
	 viewBox="0 0 217 250" style="enable-background:new 0 0 217 250;" xml:space="preserve">
<style type="text/css">
	.st0{fill:#E32F40;}
	.st1{fill:#C6262C;}
	.st2{fill:#ED1B2F;}
	.st3{fill:#F57B20;}
	.st4{fill:#A4282E;}
	.st5{fill:#E31567;}
	.st6{fill:#FAA32D;}
	.st7{fill:#ED1F24;}
	.st8{fill:#A6CE39;}
	.st9{fill:#7E2A90;}
	.st10{fill:#3EB049;}
	.st11{fill:#1D6A3D;}
	.st12{fill:#572E61;}
	.st13{fill:#106292;}
	.st14{fill:#0F82B7;}
	.st15{fill:#0EABE3;}
</style>
<g id="_x23_e32f40ff">
	<path class="st0" d="M107.4,0h1.9c17.2,11,35.3,20.5,52.7,31.2c-4.3,3.5-9.3,5.9-14.1,8.7c-13.3,7.4-26.2,15.4-39.5,22.6
		c-0.3-2.2-0.6-4.3-0.7-6.5c-0.3-18.4,0.4-36.8-0.3-55.2L107.4,0z"/>
</g>
<g id="_x23_c6262cff">
	<path class="st1" d="M54,31.6C71.8,21.3,89.5,11,107.3,0.8c0.8,18.4,0.1,36.8,0.3,55.2c0.1,2.2,0.4,4.4,0.7,6.5l-0.6,0.3
		c-7.4-5.4-16-9-23.7-14c-3.9-2.5-7.9-4.9-12-7C65.9,38.6,60.3,34.5,54,31.6z"/>
</g>
<g id="_x23_ed1b2fff">
	<path class="st2" d="M52.1,32.7c0.5-0.3,1.4-0.8,1.9-1.1c6.3,2.9,12,7,18.1,10.2c4.1,2.2,8.1,4.5,12,7c7.7,5,16.3,8.6,23.7,14
		C90.4,73.3,72.7,83.2,55.2,93.4l-0.9-0.3c0.1-15,0-30.1,0-45.1c0-4.9,0.4-9.9-0.5-14.8C53.4,33.1,52.5,32.8,52.1,32.7z"/>
</g>
<g id="_x23_f57b20ff">
	<path class="st3" d="M162.7,31.8c8.5,4.1,16.3,9.3,24.6,13.8c9.3,5.6,18.9,10.8,28.2,16.4c-5.6,4.2-11.8,7.4-17.9,10.7
		c-11.6,6.6-22.9,14-34.9,19.7c-0.6-12.8-0.1-25.7-0.2-38.5C162.6,46.6,162.3,39.2,162.7,31.8z"/>
</g>
<g id="_x23_a4282eff">
	<path class="st4" d="M1.2,62.1c16.9-9.8,33.9-19.6,50.9-29.4c0.4,0.1,1.3,0.4,1.8,0.5c0.8,4.9,0.5,9.8,0.5,14.8
		c0,15,0.1,30.1,0,45.1c-6-2.5-11.3-6.3-17-9.4c-9.5-5.1-18.5-11.1-28-16C6.3,66.2,3.7,64.3,1.2,62.1z"/>
</g>
<g id="_x23_e31567ff">
	<path class="st5" d="M0.7,82c0.2-6.6-0.5-13.3,0.5-19.9c2.5,2.2,5.1,4.1,8.1,5.6c9.6,5,18.5,10.9,28,16c5.7,3,11,6.8,17,9.4
		l0.9,0.3c-12.7,7.3-25.2,14.7-37.9,21.9c-5.5,3-10.6,6.7-16.4,9.1C0.5,110.3,0.8,96.2,0.7,82z"/>
</g>
<g id="_x23_faa32dff">
	<path class="st6" d="M215.6,62c0.9,2.6,0.8,5.3,0.8,8c-0.1,12.3,0,24.7-0.1,37c-0.1,5.8,0.5,11.6-0.6,17.4
		c-6.7-3-12.7-7.3-19.2-10.9c-11.4-6.3-22.6-13.2-34-19.6c0.1-0.4,0.2-1.1,0.2-1.4c12.1-5.8,23.3-13.2,34.9-19.7
		C203.8,69.4,210,66.2,215.6,62z"/>
</g>
<g id="_x23_ed1f24ff">
	<path class="st7" d="M81.7,78.8c9.3,4.2,17.8,9.9,26.7,14.9c17.8,10.2,35.5,20.5,53.3,30.7c0.1,0.3,0.1,0.9,0.2,1.2
		c-25.1,14.2-50,28.8-75,43.2c-1.7,0.9-3.4,1.7-5.1,2.5c-0.4-27.4,0-54.9-0.2-82.3C81.5,85.6,81.5,82.2,81.7,78.8z"/>
</g>
<g id="_x23_a6ce39ff">
	<path class="st8" d="M162.4,110c0.1-5.4-0.1-10.7,0.1-16.1c11.4,6.4,22.6,13.3,34,19.6c6.4,3.5,12.5,7.8,19.2,10.9
		c0,0.3,0,1,0.1,1.3c-10.2,5.3-20,11.5-30.1,17.1c-7.5,4.7-15.4,8.6-22.7,13.5l-0.5-0.5c-0.6-10,0.8-20.2-0.7-30.2
		c-0.1-0.3-0.1-0.9-0.2-1.2C163,119.7,162.4,114.8,162.4,110z"/>
</g>
<g id="_x23_7e2a90ff">
	<path class="st9" d="M1,125.6c4.2,1.7,8,4.3,11.9,6.5c13.9,8.2,28.2,16,42,24.5c-8.7,5.2-17.6,10-26.3,15.1c-8.7,5.8-18.3,10-27,16
		L1.1,188c-1-10.3-0.2-20.6-0.4-31C0.9,146.5,0.1,136,1,125.6z"/>
</g>
<g id="_x23_3eb049ff">
	<path class="st10" d="M185.7,142.8c10.1-5.6,19.8-11.8,30.1-17.1c1.2,7.7,0.3,15.6,0.6,23.3c-0.2,13,0.5,25.9-0.4,38.9l-0.5-0.3
		c-6.3-4.7-13.5-7.8-20.1-12c-10.7-6.6-22.2-12-32.5-19.2C170.3,151.4,178.2,147.5,185.7,142.8z"/>
</g>
<g id="_x23_1d6a3dff">
	<path class="st11" d="M162.5,155.8l0.5,0.5c10.3,7.3,21.8,12.6,32.5,19.2c6.6,4.2,13.8,7.4,20.1,12c-2.5,2.3-5.6,3.8-8.5,5.4
		c-11.1,6.2-21.9,12.8-33,19c-3.8,2-7.3,5-11.6,6C162.5,197.3,162.4,176.5,162.5,155.8z"/>
</g>
<g id="_x23_572e61ff">
	<path class="st12" d="M28.5,171.7c8.8-5.1,17.6-9.9,26.3-15.1c-0.5,20.4-0.2,40.9-0.1,61.4l-0.8,0.3c-14.6-8-28.9-16.7-43.3-24.9
		c-3.1-1.8-6.4-3.3-9.1-5.7C10.2,181.7,19.8,177.4,28.5,171.7z"/>
</g>
<g id="_x23_106292ff">
	<path class="st13" d="M54.9,156.6c15.8,8.6,31.1,18,46.8,26.8c2.1,1.2,4.5,2.3,6,4.4c-12.8,6.7-24.8,14.6-37.5,21.4
		c-5.2,2.9-10,6.2-15.4,8.7C54.7,197.5,54.4,177,54.9,156.6z"/>
</g>
<g id="_x23_0f82b7ff">
	<path class="st14" d="M70.2,209.2c12.7-6.8,24.7-14.7,37.5-21.4l0.8-0.4c-0.3,20.6,0.1,41.3-0.2,61.9c-1.6-0.5-3.2-1.1-4.6-2
		c-16.5-9.8-33.3-19.1-49.7-29l0.8-0.3C60.2,215.4,65,212.1,70.2,209.2z"/>
</g>
<g id="_x23_0eabe3ff">
	<path class="st15" d="M108.8,188.3c2.9,0.7,5.5,2.4,8,3.9c13.1,7.5,26.1,15.2,39.3,22.7c2.1,1.1,4.1,2.4,5.8,4
		c-13.3,8.1-27,15.7-40.5,23.6c-4.2,2.3-8.1,5.3-12.7,6.8C108.5,228.9,108.5,208.6,108.8,188.3z"/>
</g>
</svg>
